svgs/solid/watch-fitness.svg

<svg xmlns="http://www.w3.org/2000/svg" viewBox="0 0 384 512"><!--! Font Awesome Pro 6.2.0 by @fontawesome - https://fontawesome.com License - https://fontawesome.com/license (Commercial License) Copyright 2022 Fonticons, Inc. --><path d="M64 48C64 21.5 85.5 0 112 0H272c26.5 0 48 21.5 48 48H64zm0 416H320c0 26.5-21.5 48-48 48H112c-26.5 0-48-21.5-48-48zM0 160c0-44.2 35.8-80 80-80H304c44.2 0 80 35.8 80 80V352c0 44.2-35.8 80-80 80H80c-44.2 0-80-35.8-80-80V160zM100.8 264.1l80 77.2c6.2 6 16 6 22.2 0l80-77.2c20.1-19.4 20.1-51.7 0-71.1c-19.1-18.4-49.4-18.4-68.5 0L192 214.9 169.4 193c-19.1-18.4-49.4-18.4-68.5 0c-20.1 19.4-20.1 51.7 0 71.1z"/></svg>

<svg xmlns="http://www.w3.org/2000/svg" viewBox="0 0 384 512"><!--! Font Awesome Pro 6.1.2 by @fontawesome - https://fontawesome.com License - https://fontawesome.com/license (Commercial License) Copyright 2022 Fonticons, Inc. --><path d="M64 48C64 21.49 85.49 0 112 0H272C298.5 0 320 21.49 320 48H64zM320 464C320 490.5 298.5 512 272 512H112C85.49 512 64 490.5 64 464H320zM0 160C0 115.8 35.82 80 80 80H304C348.2 80 384 115.8 384 160V352C384 396.2 348.2 432 304 432H80C35.82 432 0 396.2 0 352V160zM100.8 264.1L180.9 341.3C187.1 347.3 196.9 347.3 203.1 341.3L283.2 264.1C303.3 244.7 303.3 212.5 283.2 193C264 174.6 233.7 174.6 214.6 193L192 214.9L169.4 193C150.3 174.6 119.1 174.6 100.8 193C80.72 212.5 80.72 244.7 100.8 264.1V264.1z"/></svg>
